X:1
T:Only a Beam of Sunshine
T:Only a Beam of Sunshine
T:John Robson Sweney
T:Frances Jane (Fanny) Crosby, 1884
T:Public Domain Courtesy of the Cyber Hymnal™
T:Public Domain Courtesy of the Cyber Hymnal™
C:John Robson Sweney
Z:Public Domain
Z:Courtesy of the Cyber Hymnal™
%%score ( 1 2 ) ( 3 4 )
L:1/8
Q:1/4=100
M:6/8
K:G
V:1 treble 
V:2 treble 
V:3 bass 
V:4 bass 
V:1
 [DB]>[DA][DG] [DG]2 D | [CE]3 [B,D]2 [B,D] | [DG]>[DG][DG] [DA]2 [DB] | [DA]3- [DA]2 [Dc] | %4
w: 1.~On- ly a beam of|sun- shine, But|oh, it was warm and|bright; * The|
w: 2.~On- ly a beam of|sun- shine That|in- to a dwell- ing|crept; * Where,|
w: 3.~On- ly a word for|Je- sus, Oh,|speak it in His dear|name, * To|
 [DB]>[DA][DG] [DG]2 D | [CE]3 [EG]2 [_EA] | [DB]>[Ec][DB] [DB]2 [CA] | [B,G]6 | F>GA A2 c | %9
w: heart of a wear- y|trav- eler Was|cheered by its wel- come|sight.|On- ly a beam of|
w: o- ver a fad- ing|rose- bud, A|mo- ther her vi- gil|kept.|Onl- y a beam of|
w: per- ish- ing souls a-|round you The|mes- sage of love pro-|claim.|Go, like the faith- ful|
 B3 G2 G | FGA d2 c | B3- B2 [DB] | [DB][Ec][DB] [^DB]2 [DA] | [EG]3 [CE]2 [CE] | %14
w: sun- shine That|fell from the arch a-|bove: * And|ten- der- ly, soft- ly|whis- pered A|
w: sun- shine That|smiled through her fall- ing|tears, * And|showed her the bow of|prom- ise, For-|
w: sun- beam, Your|mis- sion of joy ful-|fill; * Re-|mem- ber the Sav- ior’s|prom- ise, That|
 [B,D][DG][DF] [DB]2 [CA] | [B,G]6 ||"^Refrain" [Gd][Gd][Gd] [Gd]2 [Gc] | [GB]3 [GB]3 | %18
w: mes- sage of peace and|love.|||
w: got- ten per- haps for|years.|On- ly a word for|Je- sus,|
w: He will be with you|still.|||
 [DB][DB][DB] [DB]2 [FA] | [EG]6 | [EG][DF][CE] [CE]2 [C_E] | [B,D]3 [DG]2 [_EA] | %22
w: ||||
w: On- ly a whis- pered|prayer,|O- ver some grief worn|spir- it May|
w: ||||
 [DB][DB][Ec] [DB]2 [CA] | [B,G]3- [B,G]2 z |] %24
w: ||
w: rest like a sun- beam|fair! *|
w: ||
V:2
 x5 D | x6 | x6 | x6 | x5 D | x6 | x6 | x6 | x6 | x6 | x6 | x6 | x6 | x6 | x6 | x6 || x6 | x6 | %18
 x6 | x6 | x6 | x6 | x6 | x6 |] %24
V:3
 G,>[G,C][G,B,] [G,B,]2 [B,,G,] | [C,G,]3 [G,,G,]2 [G,,G,] | [B,,G,]>[B,,G,][B,,G,] [D,F,]2 G, | %3
 [D,F,]3- [D,F,]2 [F,A,] | G,>[G,C][G,B,] [G,B,]2 [B,,G,] | [C,G,]3 [C,C]2 [C,G,] | %6
 [D,G,]>[D,G,][D,G,] [D,F,]2 [D,F,] | [G,,G,]6 | A,>B,C C2 E | D3 B,2 B, | A,B,C F2 E | D3- D2 G, | %12
 G,G,G, [B,,F,]2 [B,,B,] | [C,G,]3 [C,G,]2 [C,G,] | [D,G,][D,B,][D,A,] [D,G,]2 [D,F,] | [G,,G,]6 || %16
 [G,B,][G,B,][G,B,] [G,B,]2 [G,E] | [G,D]3 [G,D]3 | [B,,B,][B,,F,][B,,F,] [B,,F,]2 [B,,B,] | %19
 [E,B,]6 | [C,C][C,G,][C,G,] [C,G,]2 [C,G,] | [G,,G,]3 [B,,G,]2 [C,G,] | %22
 [D,G,][D,G,][D,G,] [D,F,]2 [D,F,] | [G,,G,]3- [G,,G,]2 z |] %24
V:4
 G,3/2 x9/2 | x6 | x5 G, | x6 | x6 | x6 | x6 | x6 | x6 | x6 | x6 | x5 G, | G,G,G, x3 | x6 | x6 | %15
 x6 || x6 | x6 | x6 | x6 | x6 | x6 | x6 | x6 |] %24

